public/assets/Highlight2.svg

<svg fill="none" height="58" viewBox="0 0 55 58" width="55" xmlns="http://www.w3.org/2000/svg"><g clip-rule="evenodd" fill="#000" fill-rule="evenodd"><path d="m38.0006 7.61315c4.378 1.85915 9.0518 3.12155 13.5902 4.31185.9779.253 1.9906-.3072 2.188-1.2582.2686-.94247-.3262-1.91499-1.2331-2.15867-4.3992-1.14984-8.9349-2.35764-13.1062-4.14171-.8883-.38479-1.9541.02628-2.3609.92123-.4066.89425.0337 1.94001.922 2.3255z"/><path d="m21.8733 23.6765c6.3417 8.3422 13.7314 15.856 19.905 24.3775.5458.7919 1.6768.9793 2.4738.4122.7971-.5679 1.0142-1.6707.3974-2.4718-6.1707-8.5433-13.5577-16.0782-19.8964-24.4422-.6191-.7843-1.7535-.9436-2.553-.3575-.7284.5948-.9458 1.6975-.3268 2.4818z"/><path d="m4.43227 50.2561c.34305-4.2516.68651-8.5032 1.02965-12.7556.12737-.9675-.62672-1.8267-1.62693-1.9105-1.00031-.0831-1.81832.647-1.94578 1.6151-.34398 4.2587-.68827 8.5166-1.032149 12.7746-.056366.9768.698089 1.8311 1.699049 1.9093.92995.0689 1.81989-.6568 1.87616-1.6329z"/></g></svg>

<svg width="55" height="58" viewBox="0 0 55 58" fill="none" xmlns="http://www.w3.org/2000/svg">
<path fill-rule="evenodd" clip-rule="evenodd" d="M38.0006 7.61315C42.3786 9.4723 47.0524 10.7347 51.5908 11.925C52.5687 12.178 53.5814 11.6178 53.7788 10.6668C54.0474 9.72433 53.4526 8.75181 52.5457 8.50813C48.1465 7.35829 43.6108 6.15049 39.4395 4.36642C38.5512 3.98163 37.4854 4.3927 37.0786 5.28765C36.672 6.1819 37.1123 7.22766 38.0006 7.61315Z" fill="black"/>
<path fill-rule="evenodd" clip-rule="evenodd" d="M21.8733 23.6765C28.215 32.0187 35.6047 39.5325 41.7783 48.054C42.3241 48.8459 43.4551 49.0333 44.2521 48.4662C45.0492 47.8983 45.2663 46.7955 44.6495 45.9944C38.4788 37.4511 31.0918 29.9162 24.7531 21.5522C24.134 20.7679 22.9996 20.6086 22.2001 21.1947C21.4717 21.7895 21.2543 22.8922 21.8733 23.6765Z" fill="black"/>
<path fill-rule="evenodd" clip-rule="evenodd" d="M4.43227 50.2561C4.77532 46.0045 5.11878 41.7529 5.46192 37.5005C5.58929 36.533 4.8352 35.6738 3.83499 35.59C2.83468 35.5069 2.01667 36.237 1.88921 37.2051C1.54523 41.4638 1.20094 45.7217 0.857061 49.9797C0.800695 50.9565 1.55515 51.8108 2.55611 51.889C3.48606 51.9579 4.376 51.2322 4.43227 50.2561Z" fill="black"/>
</svg>
